X: 26464
T: Metsäkukkia
R: waltz
M: 3/4
K: Aminor
|:EF|"Am"E2A2B2|c2B2A2|e2e^d ef|e4EF|E2A2B2|c2B2A2|"Dm"f2 fe fg|
f4fe|d2e2f2|f2e2d2|"Am"c2d2e2|e2d2c2|"E7"E2^D2E2|c4B2|"Am"A2A^G "E7"AB|"Am"A4:|
|:a^g|"Am"a2 e3^d|e2c3B|c2(A4|A2)d2e2|"Dm"f2f3e|f2g2f2|"Am"f2e3^d|e2f2e2|
"E7"e2d3d|d2e2d2|"Am"d2c2b2|c6|"E7"E2^D2E2|c4B2|"Am"A2A^G "E7"AB|"Am"A4:|
|:a2^g2|"G"(g6|g2)a2f2|"C"(e6|e2)f2e2|"E7"(d6|d2)e2d2|"Am"(c6|c2)d2c2|
"E7"(B6|B2)c2B2|"Am"(A6|A6)|"E7"E2^D2E2|c4B2|"Am"A2A^G "E7"AB|"Am"A2:|

